chat/static/assets/dist/svgs/solid/spinner.svg

<svg xmlns="http://www.w3.org/2000/svg" viewBox="0 0 512 512"><!-- Font Awesome Free 5.15.4 by @fontawesome - https://fontawesome.com License - https://fontawesome.com/license/free (Icons: CC BY 4.0, Fonts: SIL OFL 1.1, Code: MIT License) --><path d="M304 48c0 26.51-21.49 48-48 48s-48-21.49-48-48 21.49-48 48-48 48 21.49 48 48zm-48 368c-26.51 0-48 21.49-48 48s21.49 48 48 48 48-21.49 48-48-21.49-48-48-48zm208-208c-26.51 0-48 21.49-48 48s21.49 48 48 48 48-21.49 48-48-21.49-48-48-48zM96 256c0-26.51-21.49-48-48-48S0 229.49 0 256s21.49 48 48 48 48-21.49 48-48zm12.922 99.078c-26.51 0-48 21.49-48 48s21.49 48 48 48 48-21.49 48-48c0-26.509-21.491-48-48-48zm294.156 0c-26.51 0-48 21.49-48 48s21.49 48 48 48 48-21.49 48-48c0-26.509-21.49-48-48-48zM108.922 60.922c-26.51 0-48 21.49-48 48s21.49 48 48 48 48-21.49 48-48-21.491-48-48-48z"/></svg>

<svg xmlns="http://www.w3.org/2000/svg" viewBox="0 0 512 512"><!--! Font Awesome Free 6.0.0-beta3 by @fontawesome - https://fontawesome.com License - https://fontawesome.com/license/free (Icons: CC BY 4.0, Fonts: SIL OFL 1.1, Code: MIT License) Copyright 2021 Fonticons, Inc. --><path d="M96 256c0-26.5-21.5-48-48-48S0 229.5 0 256s21.5 48 48 48S96 282.5 96 256zM108.9 60.89c-26.5 0-48.01 21.49-48.01 47.99S82.39 156.9 108.9 156.9s47.99-21.51 47.99-48.01S135.4 60.89 108.9 60.89zM108.9 355.1c-26.5 0-48.01 21.51-48.01 48.01S82.39 451.1 108.9 451.1s47.99-21.49 47.99-47.99S135.4 355.1 108.9 355.1zM256 416c-26.5 0-48 21.5-48 48S229.5 512 256 512s48-21.5 48-48S282.5 416 256 416zM464 208C437.5 208 416 229.5 416 256s21.5 48 48 48S512 282.5 512 256S490.5 208 464 208zM403.1 355.1c-26.5 0-47.99 21.51-47.99 48.01S376.6 451.1 403.1 451.1s48.01-21.49 48.01-47.99S429.6 355.1 403.1 355.1zM256 0C229.5 0 208 21.5 208 48S229.5 96 256 96s48-21.5 48-48S282.5 0 256 0z"/></svg>
